images/ProcessIcons/Building Creative Strategy.svg

<svg width="24" height="24" viewBox="0 0 24 24" fill="none" xmlns="http://www.w3.org/2000/svg">
<path d="M11.7094 9.58915C11.2705 9.65789 10.8396 9.61335 10.4687 9.45496C10.1011 9.70886 9.39731 10.1869 8.79145 10.5497M11.7094 9.58915L8.68808 10.3785M11.7094 9.58915C11.6728 9.93939 11.5762 10.2449 11.3581 10.5943C11.0816 11.037 10.607 11.5549 9.79184 12.3119M11.7094 9.58915L9.79184 12.3119M8.79145 10.5497C8.79124 10.5499 8.79103 10.55 8.79081 10.5501L8.68808 10.3785M8.79145 10.5497C8.79165 10.5496 8.79185 10.5495 8.79205 10.5494L8.68808 10.3785M8.79145 10.5497C8.62498 10.6509 8.43884 10.7155 8.24545 10.7391C8.0525 10.7627 7.85675 10.7449 7.67119 10.6871M8.68808 10.3785C8.54575 10.4651 8.38658 10.5204 8.2212 10.5406C8.05582 10.5608 7.88804 10.5454 7.72905 10.4956M7.67119 10.6871C7.67185 10.6873 7.67252 10.6875 7.67319 10.6877L7.72905 10.4956M7.67119 10.6871C7.29585 10.5774 6.94714 10.3218 6.65924 10.0284C6.36907 9.73264 6.12689 9.38437 5.96856 9.06804L5.96853 9.06797C5.76582 8.66255 5.76563 8.30115 5.86459 8.01184C5.95885 7.73627 6.13921 7.53692 6.29495 7.42973M7.67119 10.6871C7.67054 10.6869 7.6699 10.6867 7.66925 10.6865L7.72905 10.4956M7.72905 10.4956L6.29495 7.42973M6.29495 7.42973C7.85468 6.07892 8.80593 4.64684 9.11041 4.15168C9.05383 3.96582 8.97187 3.68146 8.89976 3.3742C8.81617 3.01805 8.74202 2.61565 8.74202 2.29823V2.29803C8.74212 2.205 8.76823 2.11384 8.81741 2.03487C8.86659 1.9559 8.93688 1.89226 9.02033 1.85114L9.02122 1.8507L9.02122 1.85071C9.10456 1.81015 9.19748 1.79341 9.28974 1.80234C9.38199 1.81127 9.46998 1.84551 9.544 1.9013L9.55182 1.90719L9.55167 1.90736C9.55189 1.90752 9.55274 1.90815 9.5542 1.90923C9.5876 1.93409 9.94188 2.19777 10.4619 2.46167C11.0135 2.74162 11.7291 3.01005 12.4327 3.01005C13.1264 3.01005 14.6171 3.13005 15.9393 4.04232C17.2747 4.96378 18.4035 6.66924 18.4036 9.76668M6.29495 7.42973L9.67251 3.17224C9.74708 3.49191 9.83509 3.80833 9.9363 4.12067C9.94917 4.15978 9.9539 4.2011 9.9502 4.2421C9.9465 4.2831 9.93445 4.32291 9.91479 4.35908C9.87236 4.43736 8.83865 6.28549 6.77899 8.06432C6.68757 8.13124 6.48621 8.31886 6.68279 8.71203C6.92599 9.19841 7.43448 9.78757 7.89696 9.92261C7.97703 9.94924 8.06196 9.95802 8.14578 9.94831C8.2296 9.93861 8.31028 9.91066 8.38215 9.86644C9.15146 9.40496 10.1244 8.72459 10.2502 8.63662C10.2585 8.63084 10.2631 8.62762 10.2637 8.62718M18.4036 9.76668C18.4042 9.90552 18.3965 12.8684 17.1786 16.2119L16.9906 16.1434M18.4036 9.76668C18.4036 9.76687 18.4036 9.76706 18.4036 9.76725H18.2036M18.4036 9.76668C18.4036 9.76654 18.4036 9.76641 18.4036 9.76628L18.2036 9.76725M16.9906 16.1434L17.1794 16.2096C17.1576 16.2718 17.1236 16.3291 17.0795 16.3781C17.0354 16.4272 16.982 16.467 16.9224 16.4952C16.8628 16.5235 16.7982 16.5397 16.7323 16.5428C16.6665 16.5459 16.6006 16.5359 16.5386 16.5135C16.4766 16.491 16.4197 16.4564 16.3711 16.4118C16.3226 16.3671 16.2834 16.3133 16.2557 16.2534C16.2281 16.1935 16.2127 16.1287 16.2103 16.0628C16.2079 15.9972 16.2184 15.9319 16.2413 15.8704C17.4011 12.6863 17.4061 9.78884 17.4061 9.76904C17.4061 7.12844 16.5215 5.70396 15.4835 4.93152C14.4344 4.15084 13.1917 4.00817 12.4327 4.00817C11.4758 4.00817 10.5594 3.64382 9.90965 3.30219C9.97328 3.55683 10.0456 3.80925 10.1266 4.05902C10.1477 4.12379 10.1555 4.1922 10.1494 4.26007C10.1432 4.32825 10.1232 4.39445 10.0905 4.45459M16.9906 16.1434C16.9776 16.1807 16.9572 16.215 16.9308 16.2444C16.9044 16.2738 16.8724 16.2976 16.8367 16.3145C16.801 16.3315 16.7623 16.3411 16.7229 16.343C16.6834 16.3449 16.6439 16.3389 16.6068 16.3254C16.5697 16.312 16.5356 16.2913 16.5065 16.2645C16.4774 16.2378 16.4539 16.2055 16.4374 16.1697C16.4208 16.1338 16.4116 16.095 16.4101 16.0555C16.4087 16.016 16.4151 15.9766 16.429 15.9397L18.2036 9.76725M16.9906 16.1434C18.1982 12.8284 18.2042 9.88974 18.2036 9.76725M10.0905 4.45459L9.91483 4.35911L10.0906 4.45438C10.0906 4.45445 10.0905 4.45452 10.0905 4.45459ZM10.0905 4.45459C10.0398 4.54801 8.99236 6.41701 6.90972 8.21568L6.90363 8.22094L6.89713 8.2257C6.86554 8.24882 6.82906 8.28306 6.8113 8.33294C6.79593 8.37609 6.78257 8.46436 6.86168 8.62259C6.97397 8.84718 7.1501 9.09972 7.35212 9.31078C7.55748 9.52532 7.77088 9.67744 7.95301 9.73062L7.96013 9.7327L7.96008 9.73283C8.01244 9.75025 8.06797 9.75598 8.12278 9.74964C8.17759 9.74329 8.23034 9.72502 8.27733 9.69611L8.27926 9.69492L8.27926 9.69493C9.02936 9.24498 9.97094 8.58768 10.1298 8.47678C10.1383 8.47086 10.1445 8.4665 10.1484 8.46381M10.1484 8.46381L10.2637 8.62718M10.1484 8.46381C10.1508 8.46217 10.1522 8.46115 10.1528 8.46077L10.2637 8.62718M10.1484 8.46381L10.4709 13.043M10.2637 8.62718C10.3136 8.592 10.373 8.57292 10.434 8.57249C10.495 8.57206 10.5546 8.59031 10.6049 8.62479M13.3159 8.40968C13.5579 8.05715 14.0789 7.1519 13.6923 6.35062L11.9141 9.54898C11.8396 10.4202 11.4424 11.0521 9.92793 12.4585C8.47237 13.8095 7.60895 15.5841 7.61732 17.2064C7.62175 17.9952 7.83596 18.1519 8.24366 18.45C8.38598 18.5541 8.55188 18.6754 8.74066 18.8468C8.79563 18.8972 8.86748 18.9251 8.94202 18.9251H17.3073C17.3866 18.9251 17.4626 18.8936 17.5186 18.8376C17.5746 18.7816 17.6061 18.7056 17.6061 18.6264C17.6061 18.5471 17.5746 18.4711 17.5186 18.4151C17.4626 18.3591 17.3866 18.3276 17.3073 18.3276H9.06093C8.87453 18.144 8.7178 18.0537 8.59189 17.9811C8.34689 17.8398 8.21859 17.7658 8.21544 17.2034M13.3159 8.40968C13.1229 8.69171 12.8403 8.92475 12.5134 9.10102M13.3159 8.40968L13.4808 8.52287M13.3159 8.40968L13.4809 8.52263C13.4809 8.52271 13.4808 8.52279 13.4808 8.52287M12.5134 9.10102C12.5148 9.10704 12.5165 9.11298 12.5181 9.11891C12.5226 9.13534 12.5272 9.15173 12.5272 9.16973C12.5272 10.5136 12.0766 11.2796 10.3348 12.8965M12.5134 9.10102L12.5505 9.16973L12.6083 9.27705C12.6484 9.25542 12.688 9.23293 12.727 9.20959M12.5134 9.10102L12.708 9.05492L12.7106 9.06477L12.711 9.06605C12.7124 9.07097 12.7145 9.07887 12.7166 9.0871C12.7211 9.1058 12.7272 9.13479 12.7272 9.16973C12.7272 9.18307 12.7271 9.19635 12.727 9.20959M10.3348 12.8965C9.0203 14.1172 8.20767 15.7682 8.21544 17.2034M10.3348 12.8965L10.4709 13.043M10.3348 12.8965L10.4709 13.0431C9.18642 14.2359 8.40806 15.8365 8.41543 17.2023M8.21544 17.2034L8.41543 17.2023M8.21544 17.2034L8.41543 17.2023M9.79184 12.3119C8.30516 13.6918 7.4086 15.517 7.41732 17.2074L7.41732 17.2075C7.42046 17.7664 7.52508 18.0707 7.76425 18.3166C7.86749 18.4228 7.99231 18.514 8.11983 18.6072C8.12658 18.6122 8.13334 18.6171 8.14011 18.622C8.27821 18.7231 8.43192 18.8366 8.60589 18.9946C8.6977 19.0786 8.8176 19.1251 8.94202 19.1251H17.3073C17.4396 19.1251 17.5665 19.0726 17.66 18.979C17.7535 18.8855 17.8061 18.7586 17.8061 18.6264C17.8061 18.4941 17.7535 18.3672 17.66 18.2737C17.5665 18.1801 17.4396 18.1276 17.3073 18.1276H9.1408C9.01469 18.0119 8.90122 17.9337 8.80245 17.8731C8.76249 17.8486 8.72333 17.826 8.68945 17.8065C8.67688 17.7992 8.66504 17.7924 8.65416 17.786C8.61127 17.761 8.58 17.7416 8.55436 17.7222C8.51048 17.6892 8.48264 17.6568 8.46082 17.5953C8.43544 17.5238 8.41659 17.4075 8.41543 17.2023L9.79184 12.3119ZM8.41543 17.2023L10.4709 13.043M10.4709 13.043C11.3434 12.2331 11.9103 11.6207 12.2566 11.0321C12.602 10.4449 12.7225 9.89079 12.727 9.20959M12.727 9.20959C13.0264 9.03038 13.2906 8.8007 13.4808 8.52287M13.4808 8.52287C13.6076 8.33805 13.8107 8.0044 13.9312 7.60638C14.0517 7.20848 14.0954 6.72576 13.8725 6.26371L13.8723 6.26343C13.8438 6.20448 13.8039 6.15173 13.7549 6.1082C13.706 6.06467 13.6489 6.0312 13.5871 6.00972C13.5252 5.98823 13.4597 5.97913 13.3943 5.98296C13.3289 5.98678 13.2649 6.00345 13.206 6.03201C13.147 6.06056 13.0943 6.10045 13.0508 6.14939C13.0072 6.19833 12.9738 6.25537 12.9523 6.31724C12.9308 6.37912 12.9217 6.44462 12.9255 6.51001C12.9293 6.5754 12.946 6.63939 12.9746 6.69834L13.1546 6.61114L12.9744 6.69807C13.0359 6.82542 13.0524 7.00276 13.0021 7.2246C12.9521 7.44536 12.8384 7.69736 12.6587 7.95878L12.6586 7.95888C12.4706 8.23283 12.1221 8.46725 11.7217 8.56965C11.3141 8.67389 10.9534 8.62098 10.718 8.45981C10.718 8.4598 10.7179 8.45979 10.7179 8.45978L10.6049 8.62479M10.6049 8.62479C10.9007 8.82735 11.3249 8.87754 11.7713 8.76342L10.6049 8.62479ZM8.94202 2.29823C8.94202 2.8844 9.21987 3.83267 9.32802 4.17863L8.94202 2.29823ZM19.0011 20.8214C19.0011 20.6891 18.9486 20.5623 18.855 20.4687C18.7615 20.3752 18.6346 20.3226 18.5024 20.3226H7.74698C7.6147 20.3226 7.48784 20.3752 7.3943 20.4687C7.30077 20.5623 7.24822 20.6891 7.24822 20.8214C7.24822 20.9537 7.30077 21.0805 7.3943 21.1741C7.48784 21.2676 7.6147 21.3202 7.74698 21.3202H18.5024C18.6346 21.3202 18.7615 21.2676 18.855 21.1741C18.9486 21.0805 19.0011 20.9537 19.0011 20.8214Z" fill="black" stroke="black" stroke-width="0.4"/>
</svg>

<svg xmlns="http://www.w3.org/2000/svg" width="24" height="24" fill="none" xmlns:v="https://vecta.io/nano"><path d="M11.709 9.589c-.439.069-.87.024-1.241-.134L8.791 10.55m2.918-.961l-3.021.789m3.021-.789a2.23 2.23 0 0 1-.351 1.005c-.277.443-.751.961-1.566 1.718m1.918-2.723l-1.918 2.723m-1-1.762l-.103-.171m.103.171l-.103-.171m.103.171a1.37 1.37 0 0 1-1.12.137m1.017-.309a1.17 1.17 0 0 1-.959.117m-.058.191l.058-.191m-.058.191c-.375-.11-.724-.365-1.012-.659s-.532-.644-.691-.96h0c-.203-.405-.203-.767-.104-1.056.094-.276.275-.475.43-.582m1.376 3.257l.058-.191m0 0L6.295 7.43m0 0A14.83 14.83 0 0 0 9.11 4.152L8.9 3.374c-.084-.356-.158-.759-.158-1.076h0a.5.5 0 0 1 .278-.447h.001 0c.083-.041.176-.057.269-.048s.18.043.254.099l.008.006h0c.036.027.39.29.91.554.552.28 1.267.548 1.971.548.694 0 2.184.12 3.507 1.032 1.335.921 2.464 2.627 2.464 5.724M6.295 7.43l3.378-4.257.264.948c.013.039.018.08.014.121s-.016.081-.035.117c-.042.078-1.076 1.926-3.136 3.705-.091.067-.293.255-.096.648.243.486.752 1.076 1.214 1.211a.58.58 0 0 0 .485-.056l1.868-1.23m8.153 1.13c.001.139-.007 3.102-1.225 6.445l-.188-.069m1.413-6.377h-.2m.2-.001h-.2m-1.213 6.376l.189.066a.5.5 0 0 1-.1.169c-.044.049-.098.089-.157.117a.5.5 0 0 1-.384.018.5.5 0 0 1-.283-.26.5.5 0 0 1-.014-.383c1.16-3.184 1.165-6.082 1.165-6.101 0-2.641-.885-4.065-1.923-4.838-1.049-.781-2.292-.923-3.051-.923-.957 0-1.873-.364-2.523-.706l.217.757c.021.065.029.133.023.201a.5.5 0 0 1-.059.195m6.9 11.689c-.013.037-.033.072-.06.101s-.058.053-.094.07-.074.027-.114.029-.079-.004-.116-.018-.071-.034-.1-.061-.053-.059-.069-.095a.3.3 0 0 1-.008-.23l1.775-6.172m-1.213 6.376c1.208-3.315 1.214-6.254 1.213-6.376m-8.113-5.313l-.176-.095.176.095zm0 0c-.051.093-1.098 1.962-3.181 3.761l-.006.005-.006.005c-.032.023-.068.057-.086.107-.015.043-.029.131.05.29.112.225.288.477.49.688s.419.367.601.42l.007.002h0c.052.017.108.023.163.017s.108-.025.155-.054l.002-.001h0l1.851-1.218.019-.013m0 0l.115.163m-.115-.163l.115.163m-.115-.163l.322 4.579m-.207-4.416a.3.3 0 0 1 .17-.055c.061 0 .121.018.171.052m2.711-.215c.242-.353.763-1.258.376-2.059l-1.778 3.198c-.074.871-.472 1.503-1.986 2.91-1.456 1.351-2.319 3.126-2.311 4.748.004.789.219.946.626 1.244l.497.397c.055.05.127.078.201.078h8.365a.3.3 0 0 0 .299-.299.3.3 0 0 0-.299-.299H9.061c-.186-.184-.343-.274-.469-.346-.245-.141-.373-.215-.376-.778m5.1-8.794c-.193.282-.476.515-.802.691m.802-.691l.165.113m-.165-.113l.165.113m-.967.578c.009.034.014.051.014.069 0 1.344-.451 2.11-2.192 3.727m2.179-3.795l.037.069.058.107.119-.067m-.214-.109l.195-.046.003.01v.001l.006.021a.35.35 0 0 1 .011.083v.04m-2.392 3.687c-1.314 1.221-2.127 2.872-2.119 4.307m2.119-4.307l.136.146m-.136-.146l.136.147c-1.284 1.193-2.063 2.793-2.055 4.159m-.2.001l.2-.001m-.2.001l.2-.001m1.376-4.89c-1.487 1.38-2.383 3.205-2.375 4.896h0c.003.559.108.863.347 1.109.103.106.228.197.356.291l.02.015.466.373a.5.5 0 0 0 .336.131h8.365a.5.5 0 0 0 .499-.499.5.5 0 0 0-.499-.499H9.141a2.15 2.15 0 0 0-.338-.255l-.113-.067-.035-.02-.1-.064c-.044-.033-.072-.065-.094-.127-.025-.072-.044-.188-.045-.393l1.376-4.89zm-1.376 4.89l2.055-4.159m0 0c.873-.81 1.439-1.422 1.786-2.011s.466-1.141.47-1.823m0 0c.299-.179.564-.409.754-.687m0 0a3.44 3.44 0 0 0 .45-.916c.12-.398.164-.881-.059-1.343h0c-.028-.059-.068-.112-.117-.155a.5.5 0 0 0-.361-.125.5.5 0 0 0-.343.166.5.5 0 0 0-.125.361.5.5 0 0 0 .049.188l.18-.087-.18.087c.062.127.078.305.028.527s-.164.473-.343.734h0c-.188.274-.537.508-.937.611-.408.104-.768.051-1.004-.11l-.113.165m0 0c.296.203.72.253 1.166.139l-1.166-.139zM8.942 2.298c0 .586.278 1.534.386 1.88l-.386-1.88zm10.059 18.523a.5.5 0 0 0-.499-.499H7.747a.5.5 0 0 0-.499.499.5.5 0 0 0 .499.499h10.755a.5.5 0 0 0 .499-.499z" fill="#000" stroke="#000" stroke-width=".4"/></svg>
